FlatUX/src/svg/Nintendo - Wii U-content.svg

<svg enable-background="new 0 0 256 256" viewBox="0 0 256 256" xmlns="http://www.w3.org/2000/svg"><path d="m128 12c-64.071 0-116 51.934-116 116s51.929 116 116 116c64.051 0 116-51.934 116-116s-51.949-116-116-116zm0 132c-8.837 0-16-7.163-16-16s7.163-16 16-16 16 7.163 16 16-7.163 16-16 16z" fill="#1b80bb"/><path d="m128 16c-29.918 0-58.045 11.65-79.198 32.804-21.153 21.153-32.802 49.279-32.802 79.196s11.649 58.043 32.802 79.196c21.153 21.154 49.28 32.804 79.198 32.804 61.757 0 112-50.243 112-112s-50.243-112-112-112zm0 128c-8.837 0-16-7.163-16-16s7.163-16 16-16 16 7.163 16 16-7.163 16-16 16z" fill="#3babe0"/><path d="m231.425 85.167c-10.976-26.498-32.037-48.817-60.566-60.634l-36.738 88.692c4.082 1.691 7.092 4.876 8.659 8.659z" fill="#3394d1"/><path d="m24.522 170.869c11.448 27.638 32.975 49.164 60.616 60.613l36.738-88.692c-4.082-1.691-7.092-4.876-8.659-8.659z" fill="#3394d1"/><path d="m128.003 82c-25.364 0-46.003 20.651-46.003 46s20.639 46 46.003 46c25.338 0 45.997-20.651 45.997-46s-20.659-46-45.997-46zm-.001 59.776c-7.596 0-13.786-6.176-13.786-13.776 0-7.604 6.19-13.785 13.786-13.785 7.6 0 13.777 6.181 13.777 13.785 0 7.599-6.177 13.776-13.777 13.776z" fill="#1b80bb"/><path d="m127.998 60c40 0 84-12 84-12v-.002c-21.128-22.177-50.948-35.998-84-35.998-33.043 0-62.865 13.822-83.996 36.001.177.048 44.076 11.999 83.996 11.999z" fill="#edefef"/></svg>

<svg xmlns="http://www.w3.org/2000/svg" viewBox="0 0 256 256"><path fill="#1b80bb" d="M128 12C63.929 12 12 63.934 12 128s51.929 116 116 116c64.051 0 116-51.934 116-116S192.051 12 128 12m0 132c-8.837 0-16-7.163-16-16s7.163-16 16-16 16 7.163 16 16-7.163 16-16 16"/><path fill="#3babe0" d="M128 16c-29.918 0-58.045 11.65-79.198 32.804C27.649 69.957 16 98.083 16 128s11.649 58.043 32.802 79.196C69.955 228.35 98.082 240 128 240c61.757 0 112-50.243 112-112S189.757 16 128 16m0 128c-8.837 0-16-7.163-16-16s7.163-16 16-16 16 7.163 16 16-7.163 16-16 16"/><path fill="#3394d1" d="M231.425 85.167c-10.976-26.498-32.037-48.817-60.566-60.634l-36.738 88.692a15.95 15.95 0 0 1 8.659 8.659zM24.522 170.869c11.448 27.638 32.975 49.164 60.616 60.613l36.738-88.692a15.95 15.95 0 0 1-8.659-8.659z"/><path fill="#1b80bb" d="M128.003 82C102.639 82 82 102.651 82 128s20.639 46 46.003 46C153.341 174 174 153.349 174 128s-20.659-46-45.997-46m-.001 59.776c-7.596 0-13.786-6.176-13.786-13.776 0-7.604 6.19-13.785 13.786-13.785 7.6 0 13.777 6.181 13.777 13.785 0 7.599-6.177 13.776-13.777 13.776"/><path fill="#edefef" d="M127.998 60c40 0 84-12 84-12v-.002C190.87 25.821 161.05 12 127.998 12c-33.043 0-62.865 13.822-83.996 36.001C44.179 48.049 88.078 60 127.998 60"/></svg>
